X: 9
T: Glentaun, The
Z: JACKB
S: https://thesession.org/tunes/485#setting50699
R: reel
M: 4/4
L: 1/8
K: Gmaj
|:DGBG AGBG|DGBG AGEG|DGBG AGAB|dedc BGG2:|
|:BddB d2ef|g2fg eA A2|(3Bcd ef g3e|dBAc BGG2:|

%-------------------- TUNE SEPARATOR --------------------%

